X:115
T:Longford Collector (reel), The 
B:CRE1.184 (Bailitheoir Longphoirt)
F:file ID: cre.1/115longf_c
S:Tommy Potts
N:CRE has this as a single reel (AB).
M:C
L:1/8
Q:180
R:reel
K:G
G3A Bcdf|eBB/A/B eBAB|G3A BcdB|AcBA GEE2|
G3A Bcdf|eBB/A/B d2ef|gbaf (3gfe dB|AcBA GEE2:|
g3a gedf|eBB/A/B d2ef|(3gag fa gedB|AcBA GEE2|
g3a gedf|eBB/A/B d2ef|gb (3agf gedB|AcBA GEE2:|

%%%

